X: 8425
T: Coyoacán
R: waltz
M: 3/4
K: Bminor
A2|:B2 d2 (G2|G2) d2 c2|E2 d2 (c2|c2) A2 F2|B2 d2 (G2|G2) d2 c2|e2 f2 (d2|d2) A2 F2|
B2 d2 (G2|G2) d2 c2|E2 d2 (c2|c2) A2 z2|A2 B2 B2|d2 BA F2|B2- B2- B2|c2 c2- c2:|
|:ez fg zf|dA de fd|eA A/A/A de|fg eA A/A/A|
eA fA gf|dA de fg|eA A/A/A de|fa a2- af|
ee fg zf|dA de fd|eA A/A/A de|fg eA A/A/A|
f2- f2- f2|g2 g2 f2|f2- f2- f2|g2 g2 f2:|

